X: 29743
T: Nyth Y Gwcw
R: barndance
M: 4/4
K: Edorian
|:F2|GFGF E2 e2|B2 B2 B2 A2|GFGF E2 Bc|d2 d2 d2 F2|
GFGF E2 e2|B2 B2 B2 A2|GFGF EFGA|B2 B2 e2:|
|:B2|efgf e2 e2|dcBA B2 B2|efga b2 b2|a2 e2 e2 f2|
efgf e2 e2|dcBA B2 A2|GFGF EFGA|B2 B2 e2:|

